X: 5
T:Glass of Beer, The
M:C|
L:1/8
R:reel
K:Bm
de|fB(3BBB fBaB|fB(3BBB e2 de|fB(3BBB fgfe| dfaf e2 :|
|:fe|d2 de f2 fe|defd edcd|dcde fgfe|dfaf e2 :||
